X:1
T:MInuet by Urbani EHo.105
T:MInuet by Urbani EHo.105
T:Urbani
C:Urbani
L:1/8
Q:1/4=110
M:3/4
K:Bb
V:1 treble 
V:1
 FF | B3 d ff | (f/e/)(d/e/) c3 e | d3 (e/f/) (e/d/)(c/B/) | c>A F2 FF | B2 (B/d/c/B/) (A/c/B/A/) | %6
 G2 (G/A/B/c/) (d/e/f/g/) | (fg/e/) d2"^tr" c2 | B>B B2 :: ff | f2 c2 d2 | %11
 (f/e/d/e/) (dc) (B/A/G/F/) |"^~" B3 cde | d2 c2 F>F | B2 (B/d/c/B/) (A/c/B/A/) | %15
 G2 (G/A/B/c/) (d/e/f/g/) | (fg/e/) d2"^tr" c2 | [DB]>[DB] [DB]2 :| %18

